images/stories-bgi-1.svg

<svg xmlns="http://www.w3.org/2000/svg" width="147" height="100" fill="none"><path fill="#002529" d="M0 100h100V0H0z"/><path fill="#79C8C7" fill-rule="evenodd" d="M47 56h100v4H47v-4Zm0 8h100v4H47v-4Zm100 8H47v4h100v-4ZM47 80h100v4H47v-4Zm100 8H47v4h100v-4ZM47 96h100v4H47v-4Z" clip-rule="evenodd"/></svg>

<svg width="147" height="100" viewBox="0 0 147 100" fill="none" xmlns="http://www.w3.org/2000/svg">
<g id="Group 8 Copy">
<rect id="Rectangle" width="100" height="100" transform="matrix(1 0 0 -1 0 100)" fill="#002529"/>
<path id="Combined Shape" fill-rule="evenodd" clip-rule="evenodd" d="M47 56H147V60H47V56ZM47 64H147V68H47V64ZM147 72H47V76H147V72ZM47 80H147V84H47V80ZM147 88H47V92H147V88ZM47 96H147V100H47V96Z" fill="#79C8C7"/>
</g>
</svg>
